X:545
T:Micho Russel's
R:jig
Z:Transcribed by Dave Marshall
M:6/8
K:G
|: G,B,D E2D | EGF GDB, | G,B,D E2B | AGF G3 |
G,B,D E2D | EGF GBc | ~d3 ~B3 |1 AGF GDB, :|2 AGF GBd
|:e3 d3 | ~B3 GBd | e3 d3 | BAG ABd |
e3 d3 | ~B3 GAB | ~c3 ~B3 |1 AGF GBd :|2 AGF GDB, ||
